X: 14
T: Prelude in E\b Minor, Op. 28, No. 14
C: Frederic Chopin
%%abc-version 2.0
%%abcx-abcm2ps-target-version 5.9.1 (29 Sep 2008)
%%abc-creator hum2abc beta
%%abcx-conversion-date 2021/01/25 16:34:27
%%abc-copyright Copyright 2001 by Craig Stuart Sapp
%%abc-edited-by Craig Stuart Sapp
%%gracespace 0 6 6
%%humdrum-veritas 251201103
%%humdrum-veritas-data 1422920557
%%linebreak <none>
%%barnumbers 0
L: 1/8
M: 4/4
N: Derived from prelude28-14.krn
Q: "Allegro" 1/4=160
%%staves {1 2}
V: 1 clef=bass
V: 2 clef=bass
K: Gb
[V:1] (3E, B, G, (3C E, C (3=D, C F, (3B, D, B, [I:setbarnb 2]| 
[V:2] (3E,, B,, G,, (3C, E,, C, (3=D,, C, F,, (3B,, D,, B,, | 
[V:1] (3E, B, G, (3C E, C (3=D, C F, (3B, D, B, | 
[V:2] (3E,, B,, G,, (3C, E,, C, (3=D,, C, F,, (3B,, D,, B,, | 
[V:1] (3E, B, G, (3C E, =C (3F, C A, (3E __B, D | 
[V:2] (3E,, B,, G,, (3C, E,, =C, (3F,, C, A,, (3E, __B,, D, | 
[V:1] (3G, D B, (3E G, =E (3=A, E =C (3G D F | 
[V:2] (3G,, D, B,, (3E, G,, =E, (3=A,, E, =C, (3G, D, F, | 
[V:1] (3B, F D (3G B, G (3=A, G =C (3F A, F | 
[V:2] (3B,, F, D, (3G, B,, G, (3=A,, G, =C, (3F, A,, F, | 
[V:1] (3B, F D (3G __B, G (3A, G =D (3F C F | 
[V:2] (3B,, F, D, (3G, __B,, G, (3A,, G, =D, (3F, C, F, | 
[V:1] (3A, _F C (3=D A, D (3=G, D B, (3=F G, E | 
[V:2] (3A,, _F, C, (3=D, A,, D, (3=G,, D, B,, (3=F, G,, E, | 
[V:1] (3F, D =G, (3=B, F, B, (3=E, B, G, (3D E, =C | 
[V:2] (3F,, D, =G,, (3=B,, F,, B,, (3=E,, B,, G,, (3D, E,, =C, | 
[V:1] (3G, __E __B, (3=C G, C (3F, C A, (3_E F, D | 
[V:2] (3G,, __E, __B,, (3=C, G,, C, (3F,, C, A,, (3_E, F,, D, | 
[V:1] (3E, C F, (3=A, E, A, (3=D, A, F, (3B, G, B, | 
[V:2] (3E,, C, F,, (3=A,, E,, A,, (3=D,, A,, F,, (3B,, G,, B,, | 
[V:1] (3E, B, G, (3C E, C (3=D, C F, (3B, D, B, | 
[V:2] (3E,, B,, G,, (3C, E,, C, (3=D,, C, F,, (3B,, D,, B,, | 
[V:1] (3E, B, G, (3C =G, C (3=D, C _G, (3B, F, B, | 
[V:2] (3E,, B,, G,, (3C, =G,, C, (3=D,, C, _G,, (3B,, F,, B,, | 
[V:1] (3E, B, G, (3C E, C (3F, D =A, (3D F, D | 
[V:2] (3E,, B,, G,, (3C, E,, C, (3F,, D, =A,, (3D, F,, D, | 
[V:1] (3G, D __B, (3__E G, E (3_B, _E G, (3_F =G, =F | 
[V:2] (3G,, D, __B,, (3__E, G,, E, (3_B,, _E, G,, (3_F, =G,, =F, | 
[V:1] (3A, C G, (3C F, C (3E, A, =D, (3G, E, G, | 
[V:2] (3A,, C, G,, (3C, F,, C, (3E,, A,, =D,, (3G,, E,, G,, | 
[V:1] (3A,, G, E, (3G, A,, G, (3B,, G, E, (3G, B,, G, | 
[V:2] (3A,,, G,, E,, (3G,, A,,, G,, (3B,,, G,, E,, (3G,, B,,, G,, | 
[V:1] (3E, B, E, (3C E, D (3E, B, E, (3C E, D | 
[V:2] (3E,, B,, E,, (3C, E,, D, (3E,, B,, E,, (3C, E,, D, | 
[V:1] (3E, D E, (3C E, B, (3E, A, E, (3B, E, B, | 
[V:2] (3E,, D, E,, (3C, E,, B,, (3E,, A,, E,, (3B,, E,, B,, | 
[V:1] .E,2z2z4 |]  
[V:2] .E,,,2z2z4 |]  


